src/assets/img/email.svg

<svg height="448pt" viewBox="0 0 448 448" width="448pt" xmlns="http://www.w3.org/2000/svg"><path d="m314.375 144h-180.75l90.375 77.464844zm0 0"/><path d="m224 240c-1.910156 0-3.757812-.683594-5.207031-1.929688l-98.792969-84.679687v150.609375h208v-150.609375l-98.792969 84.679687c-1.449219 1.246094-3.296875 1.929688-5.207031 1.929688zm0 0"/><path d="m224 0c-123.710938 0-224 100.289062-224 224s100.289062 224 224 224 224-100.289062 224-224c-.140625-123.652344-100.347656-223.859375-224-224zm120 312c0 4.417969-3.582031 8-8 8h-224c-4.417969 0-8-3.582031-8-8v-176c0-4.417969 3.582031-8 8-8h224c4.417969 0 8 3.582031 8 8zm0 0"/></svg>

<svg width="448" height="448" viewBox="0 0 448 448" fill="none" xmlns="http://www.w3.org/2000/svg">
<rect x="78" y="106" width="280" height="243" fill="#E8E9F3"/>
<path d="M314.375 144H133.625L224 221.465L314.375 144Z" fill="#3D4267"/>
<path d="M224 240C222.09 240 220.242 239.316 218.793 238.07L120 153.391V304H328V153.391L229.207 238.07C227.758 239.316 225.91 240 224 240Z" fill="#3D4267"/>
<path d="M224 0C100.289 0 0 100.289 0 224C0 347.711 100.289 448 224 448C347.711 448 448 347.711 448 224C447.859 100.348 347.652 0.140625 224 0ZM344 312C344 316.418 340.418 320 336 320H112C107.582 320 104 316.418 104 312V136C104 131.582 107.582 128 112 128H336C340.418 128 344 131.582 344 136V312Z" fill="#3D4267"/>
</svg>
